X: 4
T: The Jug Of Punch
R: reel
M: 4/4
L: 1/8
K: Edor
B,E{G}ED EFGA|B2 {d}BA (3Bcd AG|FB, ~B,2 DEFG|AB{d}BA GEFD|
B,DEF G2 EF|GE ~E2 DEFA|defe dBAF|1GE{F}ED DE{F}ED:|2GE{F}ED E3 A|
|:B2 ef gage|fafe dB ~B2|AFAB dcde|(3fga ba fede|
B2 ef (g~g2) e|fafe dBBc|dcdB {B}=c2 {c}BA|1GE{F}ED E3 A:|2GE{F}ED EFED|]


Tune 594	Setting 594

